build/img/icons/mark-regime.svg

<svg width="17" height="16" viewBox="0 0 17 16" fill="none" xmlns="http://www.w3.org/2000/svg">
<path d="M7.9935 6.51611e-05C3.57088 0.0176597 0.0311839 3.58295 0.0439799 8.00397C0.0567759 12.449 3.64926 16.0239 8.07508 15.9999C12.4737 15.9759 16.063 12.361 16.039 7.97998C16.015 3.53017 12.4385 -0.0175294 7.9935 6.51611e-05ZM7.93752 14.9794C4.09072 14.9026 0.998882 11.734 1.05646 7.9256C1.11405 4.0468 4.28426 0.951769 8.13106 1.01735C11.9955 1.08293 15.0937 4.27713 15.0185 8.11914C14.9433 11.9403 11.7299 15.0546 7.93752 14.9794ZM11.7715 10.1745C11.5748 10.5088 11.2677 10.4528 10.9686 10.2785C9.95769 9.69304 8.93241 9.12842 7.94072 8.51101C7.74078 8.38625 7.56963 8.07275 7.54724 7.83123C7.53285 7.68407 7.52485 7.53532 7.52005 7.38816C7.50725 6.9435 7.52805 6.49564 7.52805 6.04938C7.52805 5.71828 7.51845 5.38719 7.52325 5.05609C7.52485 4.94572 7.52805 4.83536 7.53285 4.72499C7.55524 4.29953 7.3473 3.65013 8.04949 3.66932C8.72447 3.68852 8.53413 4.33152 8.54533 4.76018C8.56612 5.54554 8.58212 6.33409 8.54053 7.11945C8.51654 7.57211 8.67969 7.80403 9.06997 8.01037C9.88251 8.43744 10.6631 8.93008 11.4628 9.38274C11.7955 9.56988 11.9795 9.82101 11.7715 10.1745Z" fill="#4DA82F"/>
</svg>

<svg width="17" height="16" fill="none" xmlns="http://www.w3.org/2000/svg"><path d="M7.994 0a7.959 7.959 0 00-7.95 8.004c.013 4.445 3.605 8.02 8.031 7.996 4.399-.024 7.988-3.639 7.964-8.02A7.989 7.989 0 007.993 0zm-.056 14.98c-3.847-.077-6.94-3.246-6.882-7.054.058-3.88 3.228-6.974 7.075-6.909 3.864.066 6.963 3.26 6.887 7.102-.075 3.821-3.288 6.936-7.08 6.86zm3.833-4.806c-.196.335-.503.279-.802.104-1.011-.585-2.037-1.15-3.028-1.767-.2-.125-.371-.438-.394-.68a6.864 6.864 0 01-.027-.443c-.013-.444.008-.892.008-1.339 0-.33-.01-.662-.005-.993.002-.11.005-.22.01-.331.022-.425-.186-1.075.516-1.056.675.02.485.663.496 1.091.021.786.037 1.574-.004 2.36-.024.452.139.684.529.89.813.427 1.593.92 2.393 1.373.333.187.517.438.309.792z" fill="#4DA82F"/></svg>
